svg/color/fio.svg

<?xml version="1.0" encoding="UTF-8" ?>
<!DOCTYPE svg PUBLIC "-//W3C//DTD SVG 1.1//EN" "http://www.w3.org/Graphics/SVG/1.1/DTD/svg11.dtd">
<svg width="250pt" height="250pt" viewBox="0 0 250 250" version="1.1" xmlns="http://www.w3.org/2000/svg">
<g id="#ffffffff">
<path fill="#ffffff" opacity="1.00" d=" M 0.00 0.00 L 250.00 0.00 L 250.00 250.00 L 0.00 250.00 L 0.00 0.00 M 162.42 8.45 C 138.28 21.05 113.99 33.35 89.80 45.85 C 85.24 48.38 80.33 50.42 76.47 54.03 C 75.01 56.06 73.56 58.31 73.75 60.94 C 73.72 78.97 73.79 97.00 73.72 115.03 C 73.70 116.94 73.82 118.90 74.60 120.68 C 75.95 122.50 77.22 124.53 79.35 125.54 C 107.34 139.91 135.33 154.28 163.34 168.64 C 166.60 170.29 169.73 172.47 173.47 172.83 C 174.14 172.05 174.82 171.27 175.50 170.50 C 175.65 150.99 175.53 131.48 175.57 111.96 C 175.72 108.21 173.62 104.52 170.36 102.67 C 161.72 97.70 152.70 93.44 143.80 88.97 C 144.08 88.47 144.63 87.47 144.91 86.97 C 152.25 83.84 158.99 79.49 166.29 76.25 C 170.54 74.42 175.22 71.26 175.17 66.07 C 175.29 47.03 175.19 27.99 175.22 8.95 C 175.32 6.87 174.78 3.79 172.03 4.08 C 168.57 4.84 165.56 6.88 162.42 8.45 M 74.09 129.96 C 73.54 134.96 73.78 139.99 73.75 145.00 C 73.73 165.00 73.78 185.01 73.72 205.01 C 73.66 209.38 74.54 214.08 77.53 217.43 C 80.06 219.83 83.40 221.05 86.37 222.78 C 98.46 229.75 110.84 236.19 122.98 243.06 C 125.14 244.23 127.84 245.70 130.23 244.24 C 131.53 242.42 131.49 240.13 131.51 238.00 C 131.41 212.32 131.56 186.64 131.44 160.96 C 131.70 159.03 129.61 158.44 128.33 157.64 C 110.19 148.54 92.19 139.15 74.09 129.96 Z" />
</g>
<g id="#005cb8ff">
<path fill="#005cb8" opacity="1.00" d=" M 162.42 8.45 C 165.56 6.88 168.57 4.84 172.03 4.08 C 174.78 3.79 175.32 6.87 175.22 8.95 C 175.19 27.99 175.29 47.03 175.17 66.07 C 175.22 71.26 170.54 74.42 166.29 76.25 C 158.99 79.49 152.25 83.84 144.91 86.97 C 144.03 87.36 143.15 87.77 142.29 88.20 C 129.38 80.69 115.67 74.64 102.55 67.50 C 93.93 62.87 85.04 58.75 76.47 54.03 C 80.33 50.42 85.24 48.38 89.80 45.85 C 113.99 33.35 138.28 21.05 162.42 8.45 Z" />
</g>
<g id="#009fdfff">
<path fill="#009fdf" opacity="1.00" d=" M 73.75 60.94 C 73.56 58.31 75.01 56.06 76.47 54.03 C 85.04 58.75 93.93 62.87 102.55 67.50 C 115.67 74.64 129.38 80.69 142.29 88.20 C 139.09 90.01 135.96 91.98 132.65 93.60 C 117.36 101.26 102.10 108.99 86.99 117.00 C 83.12 118.91 79.15 121.80 74.60 120.68 C 73.82 118.90 73.70 116.94 73.72 115.03 C 73.79 97.00 73.72 78.97 73.75 60.94 Z" />
</g>
<g id="#3bb4e4ff">
<path fill="#3bb4e4" opacity="1.00" d=" M 142.29 88.20 C 143.15 87.77 144.03 87.36 144.91 86.97 C 144.63 87.47 144.08 88.47 143.80 88.97 C 152.70 93.44 161.72 97.70 170.36 102.67 C 173.62 104.52 175.72 108.21 175.57 111.96 C 175.53 131.48 175.65 150.99 175.50 170.50 C 174.82 171.27 174.14 172.05 173.47 172.83 C 169.73 172.47 166.60 170.29 163.34 168.64 C 135.33 154.28 107.34 139.91 79.35 125.54 C 77.22 124.53 75.95 122.50 74.60 120.68 C 79.15 121.80 83.12 118.91 86.99 117.00 C 102.10 108.99 117.36 101.26 132.65 93.60 C 135.96 91.98 139.09 90.01 142.29 88.20 Z" />
</g>
<g id="#425cc6ff">
<path fill="#425cc6" opacity="1.00" d=" M 74.09 129.96 C 92.19 139.15 110.19 148.54 128.33 157.64 C 129.61 158.44 131.70 159.03 131.44 160.96 C 131.56 186.64 131.41 212.32 131.51 238.00 C 131.49 240.13 131.53 242.42 130.23 244.24 C 127.84 245.70 125.14 244.23 122.98 243.06 C 110.84 236.19 98.46 229.75 86.37 222.78 C 83.40 221.05 80.06 219.83 77.53 217.43 C 74.54 214.08 73.66 209.38 73.72 205.01 C 73.78 185.01 73.73 165.00 73.75 145.00 C 73.78 139.99 73.54 134.96 74.09 129.96 Z" />
</g>
</svg>

<?xml version="1.0" encoding="utf-8"?>
<!-- Generator: Adobe Illustrator 26.0.3, SVG Export Plug-In . SVG Version: 6.00 Build 0)  -->
<svg version="1.1" id="Layer_1" xmlns="http://www.w3.org/2000/svg" xmlns:xlink="http://www.w3.org/1999/xlink" x="0px" y="0px"
	 viewBox="0 0 250 250" style="enable-background:new 0 0 250 250;" xml:space="preserve">
<style type="text/css">
	.st0{fill:#005CB8;}
	.st1{fill:#009FDF;}
	.st2{fill:#3BB4E4;}
	.st3{fill:#425CC6;}
</style>
<g id="_x23_005cb8ff">
	<path class="st0" d="M162.4,8.4c3.1-1.6,6.2-3.6,9.6-4.4c2.8-0.3,3.3,2.8,3.2,4.9c0,19,0.1,38.1-0.1,57.1c0.1,5.2-4.6,8.3-8.9,10.2
		c-7.3,3.2-14,7.6-21.4,10.7c-0.9,0.4-1.8,0.8-2.6,1.2c-12.9-7.5-26.6-13.6-39.7-20.7C93.9,62.9,85,58.8,76.5,54
		c3.9-3.6,8.8-5.6,13.3-8.2C114,33.3,138.3,21,162.4,8.4z"/>
</g>
<g id="_x23_009fdfff">
	<path class="st1" d="M73.8,60.9c-0.2-2.6,1.3-4.9,2.7-6.9c8.6,4.7,17.5,8.8,26.1,13.5c13.1,7.1,26.8,13.2,39.7,20.7
		c-3.2,1.8-6.3,3.8-9.6,5.4C117.4,101.3,102.1,109,87,117c-3.9,1.9-7.8,4.8-12.4,3.7c-0.8-1.8-0.9-3.7-0.9-5.7
		C73.8,97,73.7,79,73.8,60.9z"/>
</g>
<g id="_x23_3bb4e4ff">
	<path class="st2" d="M142.3,88.2c0.9-0.4,1.7-0.8,2.6-1.2c-0.3,0.5-0.8,1.5-1.1,2c8.9,4.5,17.9,8.7,26.6,13.7
		c3.3,1.8,5.4,5.5,5.2,9.3c0,19.5,0.1,39-0.1,58.5c-0.7,0.8-1.4,1.6-2,2.3c-3.7-0.4-6.9-2.5-10.1-4.2c-28-14.4-56-28.7-84-43.1
		c-2.1-1-3.4-3-4.8-4.9c4.6,1.1,8.5-1.8,12.4-3.7c15.1-8,30.4-15.7,45.7-23.4C136,92,139.1,90,142.3,88.2z"/>
</g>
<g id="_x23_425cc6ff">
	<path class="st3" d="M74.1,130c18.1,9.2,36.1,18.6,54.2,27.7c1.3,0.8,3.4,1.4,3.1,3.3c0.1,25.7,0,51.4,0.1,77c0,2.1,0,4.4-1.3,6.2
		c-2.4,1.5-5.1,0-7.2-1.2c-12.1-6.9-24.5-13.3-36.6-20.3c-3-1.7-6.3-2.9-8.8-5.4c-3-3.3-3.9-8-3.8-12.4c0.1-20,0-40,0-60
		C73.8,140,73.5,135,74.1,130z"/>
</g>
</svg>
